!!!!SEGMENT: Distler_Jahrkreis_36_Der-Mensch-vom-Weibe-geboren-lebt-kurze-Zeit.krn
!!!COM: Distler, Hugo
!!!CDT: 1908-1942
!!!OPR@@DE: Der Jahrkreis
!!!OPR@EN: The Year Cycle
!!!OTL@@DE: Der Mensch, vom Weibe geboren, lebt kurze Zeit
!!!OTL@EN: Man that is born of a woman is of few days
!!!OPS: 5
!!!ONM: 36
**kern	**text	**kern	**text	**kern	**text
*part3	*part3	*part2	*part2	*part1	*part1
*staff3	*staff3	*staff2	*staff2	*staff1	*staff1
*Ialto	*	*Isoprn	*	*Isoprn	*
*clefG2	*	*clefG2	*	*clefG2	*
*k[]	*	*k[]	*	*k[]	*
*MM120	*	*MM120	*	*MM120	*
4B	Der	4B	Der	4e	Der
=1	=1	=1	=1	=1	=1
*M3/4	*	*M3/4	*	*M3/4	*
2B	Mensch,	2c,	Mensch,	2e,	Mensch,
4A	vom	4c	vom	4e	vom
=2	=2	=2	=2	=2	=2
*M4/4	*	*M4/4	*	*M4/4	*
2e	Wei-	4d	Wei-	2g	Wei-
.	.	8c	be	.	.
.	.	8B	ge-	.	.
4.d	be	2A	bo-	4f#	be
.	.	.	.	4d	ge-
8c#	ge-	.	.	.	.
=3	=3	=3	=3	=3	=3
2B	bo-	2B,	ren,	2e	bo-
2A	ren,	4c	lebt	4e,	ren,
.	.	([4e	kur-	4e	lebt
!!LO:LB:g=original
=4	=4	=4	=4	=4	=4
*M6/4	*	*M6/4	*	*M6/4	*
4r	.	4e]	.	(2fn	kur-
4A	lebt	4.d	.	.	.
2cn	kur.	.	.	4e	.
.	.	8cL	.	.	.
.	.	8d	.	2d)	.
.	.	8eJ	.	.	.
2B-	ze	4.f	.	.	.
.	.	.	.	4c	ze
.	.	8e	.	.	.
=5	=5	=5	=5	=5	=5
*M4/4	*	*M4/4	*	*M4/4	*
1A,	Zeit.	4d)	.	(2e	Zeit.
.	.	4d	ze	.	.
.	.	2c#,	Zeit.	8e),	.
.	.	.	.	8e	Und
.	.	.	.	8e	ist
.	.	.	.	8e	voll
=6	=6	=6	=6	=6	=6
1r	.	8r	.	4a	Un-
.	.	8A	Und	.	.
.	.	8A	ist	8g	ru-
.	.	8A	voll	4g,	he,
.	.	4d	Un-	.	.
.	.	.	.	8e	und
.	.	8cn	ru-	8e	ist
.	.	[8c	he,	8e	voll
!!LO:LB:g=original
=7	=7	=7	=7	=7	=7
1r	.	8c],	.	4a	Un-
.	.	8A	und	.	.
.	.	8A	ist	8g	ru-
.	.	8A	voll	4g,	he,
.	.	4d	Un-	.	.
.	.	.	.	8e	und
.	.	8c	ru-	8e	ist
.	.	[8c	he,	8e	voll
=8	=8	=8	=8	=8	=8
1r	.	8c],	.	(4.a	Un-
.	.	8A	und	.	.
.	.	8A	ist	.	.
.	.	8A	voll	8gL	.
.	.	(4.d	Un-	8a	.
.	.	.	.	8cc	.
.	.	.	.	8dd	.
.	.	8fL	.	8ee	.
=9	=9	=9	=9	=9	=9
8r	.	8g	.	8dd	.
8e	Und	8a	.	8ccJ	.
8e	ist	8g	.	4.a,	.
8e	voll	8fJ	.	.	.
[2a	Un-	4.d,	.	.	.
.	.	.	.	8gL	.
.	.	.	.	8a	.
.	.	8aL	.	8cc	.
!!LO:LB:g=original
=10	=10	=10	=10	=10	=10
4a]	.	8g	.	8dd	.
.	.	8fJ	.	8ee	.
(2g	ru-	4d)	.	8dd	.
.	.	.	.	8ccJ)	.
.	.	2e	ru-	2a	ru-
4f)	.	.	.	.	.
=11	=11	=11	=11	=11	=11
2.e,	he.	2.e,	he.	2.e,	he.
4B	Der	4B	Der	4e	Der
=12	=12	=12	=12	=12	=12
*M3/4	*	*M3/4	*	*M3/4	*
2B	Mensch,	2c,	Mensch,	2e,	Mensch,
4A	vom	4c	vom	4e	vom
=13	=13	=13	=13	=13	=13
*M4/4	*	*M4/4	*	*M4/4	*
2e	Wei-	4d	Wei-	2g	Wei-
.	.	8c	be	.	.
.	.	8B	ge-	.	.
4.d	be	2A	bo-	4f#	be
.	.	.	.	4d	ge-
8c#	ge-	.	.	.	.
!!LO:LB:g=original
=14	=14	=14	=14	=14	=14
2B	bo-	2B,	ren,	2e	bo-
2A	ren,	4c	lebt	4e,	ren,
.	.	([4e	kur-	4e	lebt
=15	=15	=15	=15	=15	=15
*M6/4	*	*M6/4	*	*M6/4	*
4r	.	4e]	.	(2fn	kur-
4A	lebt	4.d	.	.	.
2cn	kur.	.	.	4e	.
.	.	8cL	.	.	.
.	.	8d	.	2d)	.
.	.	8eJ	.	.	.
2B-	ze	4.f	.	.	.
.	.	.	.	4c	ze
.	.	8e	.	.	.
=16	=16	=16	=16	=16	=16
*M4/4	*	*M4/4	*	*M4/4	*
1A	Zeit.	4d)	.	1e	Zeit.
.	.	4d	ze	.	.
.	.	2c#,	Zeit.	.	.
==	==	==	==	==	==
*met(c)	*	*met(c)	*	*met(c)	*
1r	.	4r	.	4r	.
.	.	4.a	Ge-	4.ccn	Ge-
.	.	8a	het	8cc	het
.	.	[4b	auf	[4ee	auf
!!LO:LB:g=original
=13	=13	=13	=13	=13	=13
1r	.	4b]	.	4ee]	.
.	.	4dd	wie	4ee	wie
.	.	4a	ei-	4ee	ei-
.	.	4g	ne	4dd	ne
=14	=14	=14	=14	=14	=14
*	*	*^	*	*	*
2r	.	2f	2f	Blu-	2b	Blu-
4e	Und	2b,	2e	me	2ee	me
4d	faellt	.	.	.	.	.
=15	=15	=15	=15	=15	=15	=15
4c	ab,	4a	4a	und	2r	.
*	*	*v	*v	*	*	*
4r	.	4g	faellt	.	.
4d	und	4f	ab,	4a	und
4c	faellt	4r	.	4a	faellt
=16	=16	=16	=16	=16	=16
4B-	ab,	4g	und	4a,	ab.
4r	.	4f	faellt	4.a	Flie-
4c	und	4e,	ab.	.	.
.	.	.	.	8a	het
4B-	faellt	[4e	Wie	8a	wie
.	.	.	.	8g	ein
!!LO:LB:g=original
=17	=17	=17	=17	=17	=17
4A,	ab.	8e]	.	4a	Schat-
.	.	8d	ein	.	.
4.A	Wie	4e	Schat-	4a	ten.
.	.	4e	ten.	2r	.
8G	ein	.	.	.	.
4A	Schat-	4r	.	.	.
=18	=18	=18	=18	=18	=18
8A,	ten.	8r	.	8r	.
8A	Und	8e	Und	8a	Und
4.e	blei-	4.f	blei-	4.b-	blei-
8d	bet	8f	bet	8b-	bet
4e~	nicht.	4e~	nicht.	4e~	nicht.
=||	=||	=||	=||	=||	=||
=19	=19	=19	=19	=19	=19
2r	.	2r	.	2r	.
4Bn	Der	4B	Der	4e	Der
=20	=20	=20	=20	=20	=20
*M3/4	*	*M3/4	*	*M3/4	*
2B,	Mensch,	2c,	Mensch,	2e,	Mensch,
4A	vom	4c	vom	4e	vom
!!LO:LB:g=original
=21	=21	=21	=21	=21	=21
*M4/4	*	*M4/4	*	*M4/4	*
2e	Wei-	4d	Wei-	2g	Wei-
.	.	8c	be	.	.
.	.	8B	ge-	.	.
4.d	be	2A	bo-	4f#	be
.	.	.	.	4d	ge-
8c#	ge-	.	.	.	.
=22	=22	=22	=22	=22	=22
2B	bo-	2B,	ren,	2e	bo-
2A	ren,	4c	lebt	4e,	ren,
.	.	([4e	kur-	4e	lebt
=23	=23	=23	=23	=23	=23
*M6/4	*	*M6/4	*	*M6/4	*
4r	.	4e]	.	(2fn	kur-
4A	lebt	4.d	.	.	.
2cn	kur.	.	.	4e	.
.	.	8cL	.	.	.
.	.	8d	.	2d)	.
.	.	8eJ	.	.	.
2B-	ze	4.f	.	.	.
.	.	.	.	4c	ze
.	.	8e	.	.	.
=24	=24	=24	=24	=24	=24
*M4/4	*	*M4/4	*	*M4/4	*
1A	Zeit.	4d)	.	1e	Zeit.
.	.	4d	ze	.	.
.	.	2c#,	Zeit.	.	.
==	==	==	==	==	==
*-	*-	*-	*-	*-	*-
!!!YOR: Bärenreiter-Ausgabe 676
!!!YOY: 1933
!!!EFL: 36/52
!!!URL-github: https://github.com/LucasHofmann/distler/blob/main/Jahrkreis/Distler_Jahrkreis_36_Der-Mensch-vom-Weibe-geboren-lebt-kurze-Zeit.krn
!!!URL-pdf: https://imslp.eu/files/imglnks/euimg/7/7d/IMSLP834545-PMLP518834-5-jahrkreis-EA--original-paper-600dpi.pdf#page=...  First edition, Kassel: Bärenreiter, 1933. Plate BA 676.
!!!URL-imslp: https://imslp.org/wiki/Der_Jahrkreis,_Op.5_(Distler,_Hugo)#IMSLP834545
!!!system-decoration: [(s1,s2,s3)]
!!!ENC: Lucas Hofmann
!!!END: 2023/11/30
!!!title: @{OPR@@DE}, Op. @{OPS}, Nr. @{ONM}. @{OTL@@DE}
